humanity-icon-theme/Humanity/status/32/dialog-error.svg

<?xml version="1.0" encoding="UTF-8" standalone="no"?>
<!-- Created with Inkscape (http://www.inkscape.org/) -->
<svg
   xmlns:svg="http://www.w3.org/2000/svg"
   xmlns="http://www.w3.org/2000/svg"
   xmlns:xlink="http://www.w3.org/1999/xlink"
   version="1.0"
   width="32"
   height="32"
   id="svg3273">
  <defs
     id="defs3275">
    <linearGradient
       id="linearGradient8838">
      <stop
         id="stop8840"
         style="stop-color:#000000;stop-opacity:1"
         offset="0" />
      <stop
         id="stop8842"
         style="stop-color:#000000;stop-opacity:0"
         offset="1" />
    </linearGradient>
    <radialGradient
       cx="62.625"
       cy="4.625"
       r="10.625"
       fx="62.625"
       fy="4.625"
       id="radialGradient2499"
       xlink:href="#linearGradient8838"
       gradientUnits="userSpaceOnUse"
       gradientTransform="matrix(1.5058824,0,0,0.37647,-78.305888,26.258824)" />
    <linearGradient
       id="linearGradient2490">
      <stop
         id="stop2492"
         style="stop-color:#791235;stop-opacity:1"
         offset="0" />
      <stop
         id="stop2494"
         style="stop-color:#dd3b27;stop-opacity:1"
         offset="1" />
    </linearGradient>
    <linearGradient
       x1="18.379412"
       y1="44.980297"
       x2="18.379412"
       y2="3.0816143"
       id="linearGradient2496"
       xlink:href="#linearGradient2490"
       gradientUnits="userSpaceOnUse"
       gradientTransform="matrix(0.7126612,0,0,0.7126613,-1.1038706,-1.1038704)" />
    <linearGradient
       id="linearGradient3242">
      <stop
         id="stop3244"
         style="stop-color:#f8b17e;stop-opacity:1"
         offset="0" />
      <stop
         id="stop3246"
         style="stop-color:#e35d4f;stop-opacity:1"
         offset="0.26238" />
      <stop
         id="stop3248"
         style="stop-color:#c6262e;stop-opacity:1"
         offset="0.66093999" />
      <stop
         id="stop3250"
         style="stop-color:#690b54;stop-opacity:1"
         offset="1" />
    </linearGradient>
    <radialGradient
       cx="23.895569"
       cy="3.9900031"
       r="20.397499"
       fx="23.895569"
       fy="3.9900031"
       id="radialGradient2494"
       xlink:href="#linearGradient3242"
       gradientUnits="userSpaceOnUse"
       gradientTransform="matrix(0,1.7008781,-2.245129,0,24.958071,-40.236051)" />
    <linearGradient
       id="linearGradient4873">
      <stop
         id="stop4875"
         style="stop-color:#ffffff;stop-opacity:1"
         offset="0" />
      <stop
         id="stop4877"
         style="stop-color:#ffffff;stop-opacity:0"
         offset="1" />
    </linearGradient>
    <linearGradient
       x1="63.397362"
       y1="-12.489107"
       x2="63.397362"
       y2="5.4675598"
       id="linearGradient2491"
       xlink:href="#linearGradient4873"
       gradientUnits="userSpaceOnUse"
       gradientTransform="matrix(1.5436509,0,0,1.5436158,-80.015712,21.419381)" />
  </defs>
  <g
     id="layer1">
    <path
       d="M 31.999998,28 C 31.999998,30.209139 24.836553,32 15.999997,32 C 7.1634417,32 -3.2e-06,30.209139 -3.2e-06,28 C -3.2e-06,25.790861 7.1634417,24 15.999997,24 C 24.836553,24 31.999998,25.790861 31.999998,28 L 31.999998,28 z"
       id="path8836"
       style="opacity:0.3;fill:url(#radialGradient2499);fill-opacity:1;fill-rule:evenodd;stroke:none;stroke-width:0.99999988;stroke-linecap:butt;stroke-linejoin:round;marker:none;marker-start:none;marker-mid:none;marker-end:none;stroke-miterlimit:4;stroke-dasharray:none;stroke-dashoffset:0;stroke-opacity:1;visibility:visible;display:inline;overflow:visible" />
    <path
       d="M 16.000001,1.5017975 C 8.0003938,1.5017975 1.5017978,8.0003912 1.5017978,15.999999 C 1.5017978,23.999608 8.0003938,30.498205 16.000001,30.498202 C 23.999606,30.498202 30.49821,23.999608 30.498202,15.999999 C 30.498202,8.0003912 23.999606,1.5017975 16.000001,1.5017975 z"
       id="path2555"
       style="fill:url(#radialGradient2494);fill-opacity:1;stroke:url(#linearGradient2496);stroke-width:1.00365412;stroke-linecap:round;stroke-linejoin:round;stroke-miterlimit:4;stroke-dasharray:none;stroke-dashoffset:0;stroke-opacity:1" />
    <path
       d="M 29.5,15.999522 C 29.5,23.455607 23.455399,29.5 16.000172,29.5 C 8.5442598,29.5 2.5,23.455539 2.5,15.999522 C 2.5,8.5437822 8.5442598,2.5000011 16.000172,2.5000011 C 23.455399,2.5000011 29.5,8.5437822 29.5,15.999522 L 29.5,15.999522 z"
       id="path8655"
       style="opacity:0.4;fill:none;fill-opacity:1;fill-rule:nonzero;stroke:url(#linearGradient2491);stroke-width:1;stroke-miterlimit:4;stroke-dasharray:none;stroke-opacity:1" />
    <path
       d="M 4.9999999,17 C 12.333335,17 19.666666,17 27,17 C 27,15.666668 27,14.333333 27,13 C 19.666666,13 12.333335,13 4.9999999,13 C 4.9999999,14.333333 4.9999999,15.666668 4.9999999,17 z"
       id="path3360"
       style="font-size:89.63063812px;font-style:normal;font-variant:normal;font-weight:normal;font-stretch:normal;text-align:start;line-height:125%;writing-mode:lr-tb;text-anchor:start;opacity:0.2;fill:#000000;fill-opacity:1;stroke:none;stroke-width:0.7688275;stroke-linecap:round;stroke-linejoin:round;stroke-miterlimit:4;stroke-dasharray:none;stroke-opacity:1;font-family:Georgia" />
    <path
       d="M 4.9999999,18 C 12.333335,18 19.666666,18 27,18 C 27,16.666668 27,15.333333 27,14 C 19.666666,14 12.333335,14 4.9999999,14 C 4.9999999,15.333333 4.9999999,16.666668 4.9999999,18 z"
       id="path3271"
       style="font-size:89.63063812px;font-style:normal;font-variant:normal;font-weight:normal;font-stretch:normal;text-align:start;line-height:125%;writing-mode:lr-tb;text-anchor:start;fill:#ffffff;fill-opacity:1;stroke:none;stroke-width:0.7688275;stroke-linecap:round;stroke-linejoin:round;stroke-miterlimit:4;stroke-dasharray:none;stroke-opacity:1;font-family:Georgia" />
  </g>
</svg>

<?xml version="1.0" encoding="UTF-8" standalone="no"?>
<!-- Created with Inkscape (http://www.inkscape.org/) -->
<svg id="svg3273" xmlns="http://www.w3.org/2000/svg" height="32" width="32" version="1.0" xmlns:xlink="http://www.w3.org/1999/xlink">
 <defs id="defs3275">
  <radialGradient id="radialGradient2499" gradientUnits="userSpaceOnUse" cy="4.625" cx="62.625" gradientTransform="matrix(1.5059 0 0 .37647 -78.306 26.259)" r="10.625">
   <stop id="stop8840" offset="0"/>
   <stop id="stop8842" style="stop-opacity:0" offset="1"/>
  </radialGradient>
  <linearGradient id="linearGradient2496" y2="3.0816" gradientUnits="userSpaceOnUse" x2="18.379" gradientTransform="matrix(.71266 0 0 .71266 -1.1039 -1.1039)" y1="44.98" x1="18.379">
   <stop id="stop2492" style="stop-color:#791235" offset="0"/>
   <stop id="stop2494" style="stop-color:#dd3b27" offset="1"/>
  </linearGradient>
  <radialGradient id="radialGradient2494" gradientUnits="userSpaceOnUse" cy="3.99" cx="23.896" gradientTransform="matrix(0 1.7009 -2.2451 0 24.958 -40.236)" r="20.397">
   <stop id="stop3244" style="stop-color:#f8b17e" offset="0"/>
   <stop id="stop3246" style="stop-color:#e35d4f" offset=".26238"/>
   <stop id="stop3248" style="stop-color:#c6262e" offset=".66094"/>
   <stop id="stop3250" style="stop-color:#690b54" offset="1"/>
  </radialGradient>
  <linearGradient id="linearGradient2491" y2="5.4676" gradientUnits="userSpaceOnUse" x2="63.397" gradientTransform="matrix(1.5437 0 0 1.5436 -80.016 21.419)" y1="-12.489" x1="63.397">
   <stop id="stop4875" style="stop-color:#fff" offset="0"/>
   <stop id="stop4877" style="stop-color:#fff;stop-opacity:0" offset="1"/>
  </linearGradient>
 </defs>
 <g id="layer1">
  <path id="path8836" style="opacity:.3;fill-rule:evenodd;fill:url(#radialGradient2499)" d="m32 28c0 2.209-7.163 4-16 4-8.8366 0-16-1.791-16-4-0.0000032-2.209 7.1634-4 16-4 8.837 0 16 1.791 16 4z"/>
  <path id="path2555" style="stroke-linejoin:round;stroke:url(#linearGradient2496);stroke-linecap:round;stroke-width:1.0037;fill:url(#radialGradient2494)" d="m16 1.5018c-7.9996 0-14.498 6.4986-14.498 14.498-0.0002 8 6.4984 14.498 14.498 14.498 8 0 14.498-6.498 14.498-14.498 0-7.9996-6.498-14.498-14.498-14.498z"/>
  <path id="path8655" style="opacity:.4;stroke:url(#linearGradient2491);fill:none" d="m29.5 16c0 7.456-6.045 13.5-13.5 13.5-7.4557 0-13.5-6.044-13.5-13.5 0-7.4562 6.0443-13.5 13.5-13.5 7.455 0 13.5 6.0438 13.5 13.5z"/>
  <path id="path3360" style="opacity:.2" d="m5 17h22v-4h-22v4z"/>
  <path id="path3271" style="fill:#fff" d="m5 18h22v-4h-22v4z"/>
 </g>
</svg>
